X:1
T:Sleeping Beauty Waltz
T:Sleeping Beauty Waltz
T:Tchaikovsky
T:©2017SaraNanny
T:©2017SaraNanny
T:©2017SaraNanny
T:©2017SaraNanny
T:©2017SaraNanny
T:©2017SaraNanny
T:©2017SaraNanny
T:©2017SaraNanny
C:Tchaikovsky
Z:Arr. Sara Nanny
Z:©2017SaraNanny
%%score 1 2 3 4
L:1/8
Q:1/4=200
M:3/4
K:Bb
V:1 bass nm="Euphonium" snm="Euph."
V:2 bass nm="Euphonium" snm="Euph."
V:3 bass nm="Euphonium" snm="Euph."
V:4 bass nm="Tuba" snm="Tba."
V:1
!ff! B,3!mf! F, G,A, | B,3 F, G,A, | B,3 F, G,A, | B,2 _A,2 G,2 |!mp! C3 z z2 | z6 | z6 | z6 | %8
!mf! D3 A, =B,^C | DA, A,F, z2 | E3 z z2 | z2 z2 G,E, | =E,2 z4 | z6 | z6 | z2 z C D=E | %16
"^A" F z z4 |!mf! TF,6 | z6 | TF,6 | z6 | TF,6 | z6 | TF,6 | z6 | TF,6 | z6 | z6 |!ff! FD DC z2 | %29
 DC CA, z2 | CA, A,F, z2 | A,F, F,D, z2 | z2!mf! A,,C, C,F, | F,A, A,C CF |!ff! F z F2 F2 | %35
 F z z4 | !fermata!z6 |"^B" z6 | z6 | z6 | z6 | B,6 | A,6 | B,4 G,2 | A,2 B,2 G,2 | A,4 C2 | %46
 D4 =B,2 | (C6 | C6) | F6 | =E6 | E4 C2 | E2 D2 C2 | G4 F2 | E4 D2 | D2 C2 =B,2 | C2 G,2 G,2 | %57
 z2 F,2 F,2 | z2 F,2 F,2 | z2 F,2 F,2 | z2 F,2 F,2 | z2 F,2 A,2 | z2 _A,2 A,2 | z2 A,2 A,2 | %64
 z2 A,2 A,2 |"^C" D4 E2- | E2 =E4 | G4 F2- | F2 A4 | B4 A2- | A2 G4 | F z z4 | FD CD CA, | %73
 F, z F4 |:"^D" G4 A2 | B z z4 | z2 =B,C DC | D z z4 | DC B,A, B,G, | F, z z4 | A,G, F,=E, F,^C, | %81
 D, z F4 | G4 A2 | B z z4 | z2 =B,C DC | D z z4 | DC B,A, G,F, | =E, z z4 | A,G, F,=E, D,C, |1 %89
 F, z F4 :|2 F, z z4 || B,A, B,A, G,F, | A, z z4 | E,D, F,E, D,C, | B,,2 z4 | z6 | z6 | z6 | z6 | %99
 z6 | z6 | z6 | F6 | =E6 | E4 C2 | E2 D2 C2 | G4 F2 | E4 D2 | D2 C2 =B,2 | C2 z2 z2 | z2 F,2 F,2 | %111
 z2 F,2 F,2 | z2 F,2 F,2 | z2 F,2 F,2 | z2 F,2 A,2 | z2 _A,2 A,2 | z6 | z4 (C,E,) |"^F" ^F,4 G,2- | %119
 G,2 A,4 | C4 B,2- | B,2 D4 | E4 D2- | D2 G,4 | ^F,4 G,2- | G,2 C4 | D4 C2- | C2 z4 | z6 | z6 | %130
 z6 | z6 | z6 | z6 | z6 | z6 | z2 ^C,D, =E,F, | A,B, D4 | B,2 ^C,D, =E,F, | A,B, D4 | B,2 D2 B,2 | %141
 D2 B,2 D2 | B,2 D2 B,2 | D2 B,2 D2 | B,2 z4 | D2 z4 | B,2 z4 |] %147
V:2
!mf! D, z z4 | z6 | z6 | z6 |!mp! E, z z G, A,=B, | C3 G, A,=B, | C3 G, A,=B, | C2 B,2 A,2 | %8
!mf! A, z z4 | z2 z2 F,D, | E,2 z B, CD | EB, B,G, z2 | =E3 =B, CD | =E3 =B, CD | =E3 =B, CD | %15
 =E4 z2 |!mf! TF,6 | z6 | TF,6 | z6 | TF,6 | z6 | TF,6 | z6 | TF,6 | z6 | TF,6 | TF,6 | %28
 z4!ff! C z | z4 A, z | z4 F, z | z4 D, z | C, z z4 | z6 | z2!ff! B,2 B,2 | A, z z4 | !fermata!z6 | %37
 z2 F,2 F,2 | z2 F,2 F,2 | z2 F,2 F,2 | z2 F,2 F,2 | z2 F,2 F,2 | z2 F,2 F,2 | z2 F,2 F,2 | %44
 z2 F,2 F,2 | z2 F,2 F,2 | z2 F,2 F,2 | z2 F,2 F,2 | z2 F,2 F,2 | z2 C2 C2 | z2 C2 C2 | z2 C2 C2 | %52
 z2 C2 C2 | z2 D2 D2 | z2 B,2 B,2 | z2 A,2 A,2 | z2 G,2 A,2 | B,6 | A,6 | B,4 G,2 | A,2 B,2 G,2 | %61
 A,4 C2 | C4 =B,2 | C6 | C4 z2 | ^F,4 F,2- | F,2 G,4 | G,4 A,2- | A,2 C4 | D4 E2- | E2 D4 | %71
 A, z =EF AG | F z z4 | z2 F4 |: G4 =E2 | D z ^CD ED | F z z4 | z2 A,B, CB, | D z z4 | %79
 z2 =E,F, G,F, | A, z z4 | z2 F4 | G4 =E2 | D z ^CD ED | F z z4 | z2 A,B, CB, | D z z4 | %87
 z2 E,=E, F,E, | A, z z4 |1 z2 F4 :|2 FE DC DC || B, z z4 | A,G, F,E, G,F, | E, z z4 |"^E" B,6 | %95
 A,6 | B,4 G,2 | A,2 B,2 G,2 | A,4 C2 | D4 =B,2 | (C6 | C6) | F6 | =E6 | z2 C2 C2 | z2 C2 C2 | %106
 z2 D2 D2 | z2 B,2 B,2 | z2 A,2 A,2 | z2 (G,2 A,2) | B,6 | A,6 | B,4 G,2 | A,2 B,2 =B,2 | C6 | %115
 D4 =B,2 | E z z4 | G,^F, G,=B, C z | z6 | z6 | z6 | z6 | z6 | z6 | z6 | z6 | z6 | z2 F,4 | %128
 =E,4 F,2- | F,2 ^F,4 | G,4 A,2- | A,2 B,4 | ^C4 D2- | D2 E4 | F4 E2- | E2 D4 |"^G" B, z z4 | z6 | %138
 z2 ^C,D, E,F, | A,B, A,4 | B,2 A,2 B,2 | A,2 B,2 A,2 | B,2 A,2 B,2 | A,2 B,2 A,2 | B,2 z4 | %145
 B,2 z4 | B,,2 z4 |] %147
V:3
!mf! F,2!p! B,4- | B,2 B,4- | B,2 B,4- | B,2 B,2 =B,2 |!mp! F, z C4- | C2 C4- | C2 C4- | %7
 C2 C2 ^C2 |!mf! F, z A,4- | A,2 A,4 | F, z B,4- | B,2 B,4 | F, z B,4- | B,2 B,4- | B,2 B,4- | %15
 B,2 B,4 |!f! F, z E4 | F, z D4 | F, z _D4 | C2 A,2 F,2 | F, z E4 | F, z D4 | F, z _D4 | %23
 C2 A,2 F,2 | _D2 _A,2 F,2 | C2 A,2 F,2 | _D2 _A,2 F,2 | C2 A,2 F,2 | z2 z2 A, z | z2 z2 A, z | %30
 z2 z2 A, z | z2 z2 A, z | F, z!mf! A,2 A,2 | A,2 A,2 A,2 |!ff! A,2 =B,2 G,2 | A, z z4 | %36
 !fermata!z6 | z2 D,2 D,2 | z2 D,2 D,2 | z2 D,2 D,2 | z2 D,2 D,2 | z2 D,2 D,2 | z2 D,2 D,2 | %43
 z2 D,2 D,2 | z2 D,2 D,2 | z2 E,2 E,2 | z2 E,2 E,2 | z2 E,2 E,2 | z2 E,2 E,2 | z2 A,2 A,2 | %50
 z2 G,2 G,2 | z2 _G,2 G,2 | z2 F,2 F,2 | z2 B,2 B,2 | z2 F,2 F,2 | z2 E,2 E,2 | z2 E,2 E,2 | %57
 z2 D,2 D,2 | z2 D,2 D,2 | z2 D,2 D,2 | z2 D,2 D,2 | z2 F,2 F,2 | z2 F,2 F,2 | z2 F,2 F,2 | %64
 z2 F,2 F,2 | z2 D,2 D,2 | z2 F,2 F,2 | z2 F,2 F,2 | A,6 | G,6 | F,6 | F, z z4 | z6 | z4 D2- |: %74
 D2 _D2 C2 | B, z z4 | F, z z4 | F,2 z4 | F,2 F,2 B,2 | A, z z4 | E2 E2 E2 | D2 z2 D2- | %82
 D2 _D2 C2 | B, z z4 | F, z z4 | F, z z4 | G,2 G,2 G,2 | G, z z4 | B,2 z2 B,2 |1 A, z z2 D2 :|2 %90
 A, z z2 A,,2 || B,,2 C,2 D,2 | E,2 z4 | z6 | z2 D,2 D,2 | z2 D,2 D,2 | z2 D,2 D,2 | z2 D,2 D,2 | %98
 z2 E,2 E,2 | z2 E,2 E,2 | z2 E,2 E,2 | z2 E,2 E,2 | z2 A,2 A,2 | z2 G,2 G,2 | z2 _G,2 G,2 | %105
 z2 F,2 F,2 | z2 B,2 B,2 | z2 F,2 F,2 | z2 E,2 E,2 | z2 E,2 E,2 | z2 D,2 D,2 | z2 D,2 D,2 | %112
 z2 D,2 D,2 | z2 D,2 D,2 | z2 F,2 F,2 | z2 F,2 F,2 | C z G,,=B,, C,E, | G, z z4 | z2 C,2 z2 | %119
 C,2 z2 C,2 | z2 D,2 z2 | D,2 z2 G,2 | z2 G,2 z2 | F,2 z2 =B,2 | z2 E,2 z2 | F,2 z2 E,2 | %126
 z2 E,2 z2 | A,2 z2 A,2 | z2 B,2 z2 | _A,2 z2 A,2 | z2 E,2 z2 | B,2 z2 B,2 | z2 F,2 z2 | %133
 D2 z2 F,2 | z2 C2 z2 | F,2 z2 A,2 | B, z z2 z2 | z2 z2 (((A,2 | B,2))) z4 | z6 | z2 F2 F2 | %141
 F2 F2 F2 | F2 A,F, B,F, | A,F, B,F, A,F, | B,2 z4 | B,2 z4 | B,,2 z4 |] %147
V:4
!mf! F,,2!p! F,4- | F,2 F,4- | F,2 F,4- | F,2 F,2 F,2 |!mp! F,, z F,4- | F,2 F,4- | F,2 F,4- | %7
 F,2 F,2 F,2 |!mf! F,, z F,4- | F,2 F,4 | _G,, z G,4- | G,2 G,4 | F,, z F,4- | F,2 F,4- | %14
 F,2 F,4- | F,2 F,4 |!f! F,, z E,4 | F,, z D,4 | F,, z _D,4 | C,2 A,,2 F,,2 | F,, z E,4 | %21
 F,, z D,4 | F,, z _D,4 | C,2 A,,2 F,,2 | _D,2 _A,,2 F,,2 | C,2 A,,2 F,,2 | _D,2 _C,2 F,,2 | %27
 C,2 A,,2 F,,2 | z2 z2 F, z | z2 z2 F, z | z2 z2 F, z | z2 z2 F, z | F,, z!mf! F,2 F,2 | %33
 F,2 F,2 F,2 |!ff! F,2 F,2 F,2 | F, z z4 | !fermata!z6 | B,,2 z4 | F,,2 z4 | B,,2 z4 | F,,2 z4 | %41
 B,,6 | F,,6 | B,,6 | F,,6 | C,6 | A,,6 | ^G,,6 | A,,6 | F,,6 | G,,6 | _A,,6 | A,,6 | B,,6 | F,,6 | %55
 A,,6 | F,,6 | B,,6 | F,,6 | B,,6 | D,6 | C,6 | D,4 _D,2 | C,6 | C,6 | C,2 ^F,2 F,2 | C,2 G,2 G,2 | %67
 C,2 F,2 F,2 | D,6 | =B,,6 | F,,6 | F,, z z4 | z6 | z2 z2 D,2- |: D,2 _D,2 C,2 | B,, z z4 | %76
 A,, z z4 | B,,2 z4 | B,,2 D,2 =E,2 | F, z z4 | F,,2 G,,2 A,,2 | B,,2 z2 D,2- | D,2 _D,2 C,2 | %83
 B,, z z4 | A,, z z4 | B,, z z4 | B,,2 G,,2 B,,2 | C, z z4 | C,2 D,2 =E,2 |1 F, z z2 D,2 :|2 %90
 F, z z2 F,,2 || G,,2 A,,2 B,,2 | C,2 D,,2 E,,2 | F,,2 G,,2 A,,2 | B,,2 z4 | F,,2 z4 | B,,2 z4 | %97
 F,,2 z4 | C,2 z4 | A,,2 z4 | _A,,2 z4 | A,,2 z4 | F,,2 z4 | G,,2 z4 | ^G,,2 z4 | A,,2 z4 | %106
 B,,2 z4 | F,,2 z4 | A,,2 z4 | F,,2 z4 | B,,2 z4 | F,,2 z2 z2 | B,,2 z4 | D,,2 z4 | E,,2 z4 | %115
 G,,2 z4 | C, z G,,=B,, C,E, | G, z z4 | z2 E,,2 z2 | =E,,2 z2 E,,2 | z2 F,,2 z2 | F,,2 z2 F,,2 | %122
 z2 F,,2 z2 | F,,2 z2 G,,2 | z2 E,,2 z2 | D,,2 z2 C,,2 | z2 F,,2 z2 | F,2 z2 E,2 | z2 D,2 z2 | %129
 B,,2 z2 D,,2 | z2 E,,2 z2 | =E,,2 z2 G,,2 | z2 F,,2 z2 | =B,,2 z2 F,,2 | z2 C,2 z2 | %135
 F,,2 z2 F,,2 | B,, z z2 z2 | z2 z2 (F,,2 | B,,2) z4 | z4 F,2 | B,,2 F,,2 B,,2 | F,,2 B,,2 F,,2 | %142
 B,,2 F,,F,, B,,B,, | F,,F,, B,,B,, F,,F,, | B,,2 z4 | F,2 z4 | B,,,2 z4 |] %147

